dist/img/sprites/yt.svg

<svg width="34" height="25" viewBox="0 0 34 25"  xmlns="http://www.w3.org/2000/svg">
<path d="M33.4468 4.03143C33.2788 2.65099 32.1322 1.55084 30.6862 1.45274C21.5645 0.80807 12.4355 0.80807 3.31382 1.45274C1.86779 1.55785 0.72119 2.65099 0.553217 4.03143C-0.184406 9.98763 -0.184406 15.9508 0.553217 21.907C0.72119 23.2875 1.86779 24.3876 3.31382 24.4857C12.4355 25.1304 21.5645 25.1304 30.6862 24.4857C32.1322 24.3806 33.2788 23.2875 33.4468 21.907C34.1844 15.9508 34.1844 9.98763 33.4468 4.03143ZM22.3898 12.8676L14.1591 17.3873C13.8596 17.5555 13.4799 17.3453 13.4799 17.0089V7.96953C13.4799 7.63318 13.8523 7.42997 14.1591 7.59113L22.3898 12.1108C22.6965 12.279 22.6965 12.6995 22.3898 12.8606V12.8676Z"/>
</svg>

<svg width="34" height="25" viewBox="0 0 34 25" xmlns="http://www.w3.org/2000/svg"><path d="M33.447 4.031c-.168-1.38-1.315-2.48-2.76-2.578a193.945 193.945 0 00-27.373 0C1.868 1.558.72 2.65.554 4.03a72.476 72.476 0 000 17.876c.167 1.38 1.314 2.48 2.76 2.579 9.121.644 18.25.644 27.372 0 1.446-.105 2.593-1.198 2.76-2.579a72.478 72.478 0 000-17.876zM22.39 12.868l-8.23 4.52c-.3.167-.68-.043-.68-.38V7.97c0-.337.372-.54.68-.379l8.23 4.52a.42.42 0 010 .75v.007z"/></svg>
